svg/SJJB-OpenStreetMapIcons/shopping/alcohol.svg

<?xml version="1.0" encoding="UTF-8" standalone="no"?>
<!-- Created with Inkscape (http://www.inkscape.org/) -->

<svg
   xmlns:dc="http://purl.org/dc/elements/1.1/"
   xmlns:cc="http://creativecommons.org/ns#"
   xmlns:rdf="http://www.w3.org/1999/02/22-rdf-syntax-ns#"
   xmlns:svg="http://www.w3.org/2000/svg"
   xmlns="http://www.w3.org/2000/svg"
   xmlns:sodipodi="http://sodipodi.sourceforge.net/DTD/sodipodi-0.dtd"
   xmlns:inkscape="http://www.inkscape.org/namespaces/inkscape"
   version="1.0"
   width="580"
   height="580"
   id="svg2"
   sodipodi:version="0.32"
   inkscape:version="0.48.0 r9654"
   sodipodi:docname="shopping_alcohol.svg"
   inkscape:output_extension="org.inkscape.output.svg.inkscape">
  <metadata
     id="metadata2975">
    <rdf:RDF>
      <cc:Work
         rdf:about="">
        <dc:format>image/svg+xml</dc:format>
        <dc:type
           rdf:resource="http://purl.org/dc/dcmitype/StillImage" />
        <cc:license
           rdf:resource="http://web.resource.org/cc/PublicDomain" />
        <dc:language>en</dc:language>
      </cc:Work>
    </rdf:RDF>
  </metadata>
  <sodipodi:namedview
     inkscape:window-height="1003"
     inkscape:window-width="1920"
     inkscape:pageshadow="2"
     inkscape:pageopacity="0.0"
     guidetolerance="10.0"
     gridtolerance="10.0"
     objecttolerance="10.0"
     borderopacity="1.0"
     bordercolor="#666666"
     pagecolor="#ffffff"
     id="base"
     inkscape:zoom="0.65172414"
     inkscape:cx="294.77108"
     inkscape:cy="328.48623"
     inkscape:window-x="0"
     inkscape:window-y="24"
     inkscape:current-layer="svg2"
     showgrid="false"
     inkscape:window-maximized="1" />
  <defs
     id="defs4">
    <inkscape:perspective
       sodipodi:type="inkscape:persp3d"
       inkscape:vp_x="0 : 290 : 1"
       inkscape:vp_y="6.1230318e-14 : 1000 : 0"
       inkscape:vp_z="580 : 290 : 1"
       inkscape:persp3d-origin="290 : 193.33333 : 1"
       id="perspective2441" />
    <inkscape:perspective
       id="perspective3452"
       inkscape:persp3d-origin="30 : 20 : 1"
       inkscape:vp_z="60 : 30 : 1"
       inkscape:vp_y="0 : 1000 : 0"
       inkscape:vp_x="0 : 30 : 1"
       sodipodi:type="inkscape:persp3d" />
    <symbol
       viewBox="244.5 110 489 219.9"
       id="symbol-university">
      <path
         id="path4460"
         d="M79,43l57,119c0,0,21-96,104-96s124,106,124,106l43-133l82-17L0,17L79,43z" />
      <path
         id="path4462"
         d="M94,176l-21,39"
         stroke-width="20"
         stroke="#000000"
         fill="none" />
      <path
         id="path4464"
         d="M300,19c0,10.5-22.6,19-50.5,19S199,29.5,199,19s22.6-19,50.5-19S300,8.5,300,19z" />
      <path
         id="path4466"
         d="M112,216l-16-38L64,88c0,0-9-8-4-35s16-24,16-24"
         stroke-width="20"
         stroke="#000000"
         ill="none" />
    </symbol>
    <inkscape:perspective
       id="perspective4471"
       inkscape:persp3d-origin="372.04724 : 350.78739 : 1"
       inkscape:vp_z="744.09448 : 526.18109 : 1"
       inkscape:vp_y="0 : 1000 : 0"
       inkscape:vp_x="0 : 526.18109 : 1"
       sodipodi:type="inkscape:persp3d" />
    <inkscape:perspective
       id="perspective4668"
       inkscape:persp3d-origin="6 : 4 : 1"
       inkscape:vp_z="12 : 6 : 1"
       inkscape:vp_y="0 : 1000 : 0"
       inkscape:vp_x="0 : 6 : 1"
       sodipodi:type="inkscape:persp3d" />
    <inkscape:perspective
       id="perspective3826"
       inkscape:persp3d-origin="0.5 : 0.33333333 : 1"
       inkscape:vp_z="1 : 0.5 : 1"
       inkscape:vp_y="0 : 1000 : 0"
       inkscape:vp_x="0 : 0.5 : 1"
       sodipodi:type="inkscape:persp3d" />
    <inkscape:perspective
       id="perspective3855"
       inkscape:persp3d-origin="0.5 : 0.33333333 : 1"
       inkscape:vp_z="1 : 0.5 : 1"
       inkscape:vp_y="0 : 1000 : 0"
       inkscape:vp_x="0 : 0.5 : 1"
       sodipodi:type="inkscape:persp3d" />
    <inkscape:perspective
       id="perspective3909"
       inkscape:persp3d-origin="0.5 : 0.33333333 : 1"
       inkscape:vp_z="1 : 0.5 : 1"
       inkscape:vp_y="0 : 1000 : 0"
       inkscape:vp_x="0 : 0.5 : 1"
       sodipodi:type="inkscape:persp3d" />
  </defs>
  <g
     id="g1327">
    <path
       d="M 66.275,1.768 C 24.94,1.768 1.704,23.139 1.704,66.804 L 1.704,516.927 C 1.704,557.771 22.599,579.156 63.896,579.156 L 515.92,579.156 C 557.227,579.156 578.149,558.841 578.149,516.927 L 578.149,66.804 C 578.149,24.203 557.227,1.768 514.628,1.768 C 514.624,1.768 66.133,1.625 66.275,1.768 z "
       style="fill:#111;stroke:#eee;stroke-width:3.40799999"
       id="path1329" />
  </g>
  <g
     id="layer3"
     inkscape:label="Layout"
     style="display:none;stroke:#757575;stroke-opacity:1"
     transform="matrix(48.14969,0,0,48.14969,-536.27327,-33.306752)">
    <rect
       style="fill:none;stroke:#757575;stroke-width:0.10000000000000001;stroke-miterlimit:4;stroke-dasharray:none;stroke-opacity:1;display:inline"
       id="rect4134"
       width="10"
       height="10"
       x="1"
       y="1" />
    <rect
       style="fill:none;stroke:#757575;stroke-width:0.10000000000000001;stroke-miterlimit:4;stroke-dasharray:none;stroke-opacity:1;display:inline"
       id="rect4136"
       width="8"
       height="8"
       x="2"
       y="2" />
  </g>
  <g
     id="g3338"
     transform="matrix(1.3973279,-0.2437849,0.2437849,1.3973279,-185.07402,-56.183307)" />
  <g
     id="g7010"
     transform="matrix(1.0014414,0,0,1.0543874,-15.580879,-16.459021)">
    <path
       sodipodi:nodetypes="ccccc"
       id="rect3771"
       d="m 146.7393,44.009621 37.8387,0 0,124.859569 -37.8387,0 0,-124.859569 z"
       style="fill:#ffffff;fill-opacity:1;stroke:#ffffff;stroke-width:15.2984457;stroke-linecap:round;stroke-linejoin:round;stroke-miterlimit:4;stroke-opacity:1;stroke-dashoffset:0" />
    <path
       sodipodi:nodetypes="czcccc"
       id="path6978"
       d="m 110.17519,187.41423 c -1.68505,-9.49469 40.14927,-29.33844 55.65658,-29.35966 15.50731,-0.0212 55.77161,22.48985 58.71582,29.35966 l 0,316.95169 c -28.66921,14.88115 -97.94359,12.00125 -114.3724,0 l 0,-316.95169 z"
       style="fill:#ffffff;fill-opacity:1;stroke:#ffffff;stroke-width:46.24154282;stroke-linecap:round;stroke-linejoin:round;stroke-miterlimit:4;stroke-opacity:1;stroke-dashoffset:0" />
  </g>
  <path
     style="fill:none;stroke:#ffffff;stroke-width:24;stroke-linecap:round;stroke-linejoin:miter;stroke-miterlimit:4;stroke-opacity:1;stroke-dasharray:none"
     d="M 401.39916,397.29099 L 401.39916,519.88932"
     id="path3845" />
  <path
     sodipodi:type="arc"
     style="fill:#ffffff;fill-opacity:1;stroke:none"
     id="path3878"
     sodipodi:cx="519.16229"
     sodipodi:cy="502.69528"
     sodipodi:rx="45.569103"
     sodipodi:ry="12.748499"
     d="M 564.7314,502.69528 A 45.569103,12.748499 0 1 1 473.59319,502.69528 A 45.569103,12.748499 0 1 1 564.7314,502.69528 z"
     transform="matrix(1.4302812,0,0,1.8342213,-341.58987,-395.38818)" />
  <g
     id="g4243"
     transform="matrix(1.1990081,0,0,1.2591238,-72.990402,-108.62601)">
    <path
       sodipodi:nodetypes="csssccc"
       id="path3840-8"
       d="M 339.85,317.23424 C 339.8178,318.53216 339.7999,319.83312 339.7999,321.14408 C 339.7999,373.07071 365.37652,415.14047 396.92055,415.14047 C 428.46458,415.14047 454.0412,373.07071 454.0412,321.14408 C 454.0412,319.83312 454.0235,318.53216 453.9911,317.23424 C 411.89595,306.93245 365.98943,310.45437 339.84988,317.23424 L 339.84994,317.23424 z"
       style="opacity:0.75;fill:#ffffff;fill-opacity:1;stroke:#ffffff;stroke-width:8.12921333;stroke-linecap:round;stroke-linejoin:round;stroke-miterlimit:4;stroke-opacity:1;stroke-dasharray:none;stroke-dashoffset:0" />
    <path
       sodipodi:nodetypes="csssccc"
       id="path3840"
       d="M 339.43634,317.79387 C 339.40404,319.09179 339.38624,320.39276 339.38624,321.7037 C 339.38624,373.63032 364.96287,415.7001 396.50689,415.7001 C 428.05092,415.7001 453.62755,373.63032 453.62755,321.7037 C 453.62755,320.39276 453.60985,319.09179 453.57745,317.79387 C 421.72547,327.70601 387.70424,334.14737 339.43623,317.79387 L 339.4363,317.79387 z"
       style="fill:#ffffff;fill-opacity:1;stroke:#ffffff;stroke-width:0;stroke-linecap:round;stroke-linejoin:round;stroke-miterlimit:4;stroke-opacity:1;stroke-dasharray:none;stroke-dashoffset:0" />
  </g>
  <g
     transform="matrix(25.818296,0,0,25.818296,-7603.868,-1626.0059)"
     style="font-size:10px;font-style:normal;font-variant:normal;font-weight:bold;font-stretch:normal;text-align:start;line-height:125%;writing-mode:lr-tb;text-anchor:start;fill:#ffffff;fill-opacity:1;stroke:none;font-family:Bitstream Charter;-inkscape-font-specification:Bitstream Charter Bold"
     id="flowRoot6831">
    <path
       d="m 307.37375,64.57625 c -1.01,0 -1.66,0.770001 -1.66,2.09 0,1.329999 0.64,2.11 1.66,2.11 1.02,0 1.67,-0.790001 1.67,-2.11 0,-1.309999 -0.66,-2.09 -1.67,-2.09 m 4.18,0.12 -4.18,6.71 0.7,0 4.18,-6.71 -0.7,0 m -4.21,0.33 c 0.45,0 0.7,0.550001 0.7,1.64 0,1.099999 -0.25,1.65 -0.7,1.65 -0.45,0 -0.68,-0.550001 -0.68,-1.65 0,-1.089999 0.24,-1.64 0.68,-1.64 m 4.96,2.31 c -1.01,0 -1.67,0.770001 -1.67,2.09 0,1.329999 0.65,2.1 1.67,2.1 1.02,0 1.67,-0.780001 1.67,-2.1 0,-1.299999 -0.66,-2.09 -1.67,-2.09 m -0.02,0.44 c 0.45,0 0.69,0.560001 0.69,1.65 0,1.099999 -0.23,1.65 -0.69,1.65 -0.45,0 -0.69,-0.560001 -0.69,-1.65 0,-1.089999 0.25,-1.65 0.69,-1.65"
       style=""
       id="path6840" />
  </g>
</svg>

<svg xmlns="http://www.w3.org/2000/svg" viewBox="0 0 580 580"><path d="m66.28 1.768c-41.34 0-64.57 21.371-64.57 65.04v450.12c0 40.844 20.895 62.23 62.19 62.23h452.02c41.31 0 62.23-20.315 62.23-62.23v-450.12c0-42.601-20.922-65.04-63.52-65.04-.004 0-448.5-.143-448.35 0z" fill="#111" stroke="#eee" stroke-width="3.408"/><g transform="matrix(1.0014 0 0 1.05439-15.581-16.459)" fill="#fff" stroke="#fff" stroke-linejoin="round" stroke-linecap="round"><path d="m146.74 44.01h37.839v124.86h-37.839v-124.86z" stroke-width="15.298"/><path d="m110.18 187.41c-1.685-9.495 40.15-29.338 55.657-29.36 15.507-.021 55.772 22.49 58.716 29.36v316.95c-28.669 14.881-97.94 12-114.37 0v-316.95z" stroke-width="46.24"/></g><path d="m401.4 397.29v122.6" fill="none" stroke="#fff" stroke-linecap="round" stroke-width="24"/><g fill="#fff"><path d="M564.7314 502.69528A45.569103 12.748499 0 1 1 473.59319 502.69528 45.569103 12.748499 0 1 1 564.7314 502.69528" transform="matrix(1.43028 0 0 1.83422-341.59-395.39)"/><g transform="matrix(1.19901 0 0 1.25912-72.99-108.63)"><path d="m339.85 317.23c-.032 1.298-.05 2.599-.05 3.91 0 51.927 25.577 94 57.12 94 31.544 0 57.12-42.07 57.12-94 0-1.311-.018-2.612-.05-3.91-42.1-10.302-88-6.78-114.14 0z" opacity=".75" stroke="#fff" stroke-linejoin="round" stroke-linecap="round" stroke-width="8.129"/><path d="m339.44 317.79c-.032 1.298-.05 2.599-.05 3.91 0 51.927 25.577 94 57.12 94 31.544 0 57.12-42.07 57.12-94 0-1.311-.018-2.612-.05-3.91-31.852 9.912-65.873 16.353-114.14 0"/></g><path d="m307.37 64.58c-1.01 0-1.66.77-1.66 2.09 0 1.33.64 2.11 1.66 2.11 1.02 0 1.67-.79 1.67-2.11 0-1.31-.66-2.09-1.67-2.09m4.18.12l-4.18 6.71h.7l4.18-6.71h-.7m-4.21.33c.45 0 .7.55.7 1.64 0 1.1-.25 1.65-.7 1.65-.45 0-.68-.55-.68-1.65 0-1.09.24-1.64.68-1.64m4.96 2.31c-1.01 0-1.67.77-1.67 2.09 0 1.33.65 2.1 1.67 2.1 1.02 0 1.67-.78 1.67-2.1 0-1.3-.66-2.09-1.67-2.09m-.02.44c.45 0 .69.56.69 1.65 0 1.1-.23 1.65-.69 1.65-.45 0-.69-.56-.69-1.65 0-1.09.25-1.65.69-1.65" transform="matrix(25.8183 0 0 25.8183-7603.87-1626.01)"/></g></svg>
